packages/sources/assets/src/assets/landscape-placeholder.svg

<svg width="120" height="120" viewBox="0 0 120 120" fill="none" xmlns="http://www.w3.org/2000/svg">
<rect width="120" height="120" fill="#EFF1F3"/>
<path fill-rule="evenodd" clip-rule="evenodd" d="M33.2503 38.4816C33.2603 37.0472 34.4199 35.8864 35.8543 35.875H83.1463C84.5848 35.875 85.7503 37.0431 85.7503 38.4816V80.5184C85.7403 81.9528 84.5807 83.1136 83.1463 83.125H35.8543C34.4158 83.1236 33.2503 81.957 33.2503 80.5184V38.4816ZM80.5006 41.1251H38.5006V77.8751L62.8921 53.4783C63.9172 52.4536 65.5788 52.4536 66.6039 53.4783L80.5006 67.4013V41.1251ZM43.75 51.6249C43.75 54.5244 46.1005 56.8749 49 56.8749C51.8995 56.8749 54.25 54.5244 54.25 51.6249C54.25 48.7254 51.8995 46.3749 49 46.3749C46.1005 46.3749 43.75 48.7254 43.75 51.6249Z" fill="#687787"/>
</svg>

<svg width="120" height="120" fill="none" xmlns="http://www.w3.org/2000/svg"><path fill="#EFF1F3" d="M0 0h120v120H0z"/><path fill-rule="evenodd" clip-rule="evenodd" d="M33.25 38.482a2.625 2.625 0 0 1 2.604-2.607h47.292a2.606 2.606 0 0 1 2.604 2.607v42.036a2.625 2.625 0 0 1-2.604 2.607H35.854a2.607 2.607 0 0 1-2.604-2.607V38.482Zm47.25 2.643h-42v36.75l24.392-24.397a2.625 2.625 0 0 1 3.712 0L80.5 67.401V41.125Zm-36.75 10.5a5.25 5.25 0 1 0 10.5 0 5.25 5.25 0 0 0-10.5 0Z" fill="#687787"/></svg>
